X:1
T:Title
%%score { ( 1 3 ) | 2 }
L:1/8
M:2/4
K:Bb
V:1 treble nm="Grand Piano"
V:3 treble 
V:2 bass 
V:1
 z2 z[Q:1/4=86] [DF] | [DF][Fd] [Ec][DB] | [DF]4 | [DF][Fd] [Ec][FB] | [EG]4 | G[=Ed] [Ec][EG] | %6
 [Fc]4 | [FA][FB] [=EA][EG] |[M:3/8] F3 |[M:1/8] [DF] |[M:2/4] [DF][Fd] [Ec][DB] | %11
 [FA][EG] [DF][DF] | [=EG][Ed] [Ec][EG] |[M:3/8] c3 |[M:1/8] B |[M:2/4] BA Ac | cB Bd | dc eA | %18
[M:3/8] [DB]3 |[M:1/8] d |[M:2/4] dd [^Fd][Fc] | [Gc][GB] GG | F[FB] [=Ec][EB] |[M:3/8] [FA]3 | %24
[M:1/8] [DF] |[M:2/4] [EG][GB] [Ge][EG] | [DF][FB] [Fd][DB] | dc BA |[M:3/8] [DB]3 |[M:1/8] [EF] | %30
[M:2/4] [Dd][B,FB] [EFA][Fc] | [FB] [DF]2 [DF] | GB AG | F4 | [Fe][EFA] [DFB][Fd] | %35
 [EG][Gc] [Gc][CGB] | [CFA][CF] [C=EA]>[B,EG] |[M:3/8] [A,F]3 |[M:1/8] [A,EF] | %39
[M:2/4] [Dd][B,FB] [EFA][Fc] | [FB] [DF]2 [DF] | GB AG | F4 | [Fe][EFA] [DFB][Fd] | %44
[M:9/16] Gc/-c/c-c/[Ee] |[M:2/4] dB c>c |[M:3/8] [DB]3 |] %47
V:2
 z2 z [B,,B,] | [B,,B,][B,,B,] [B,,B,][B,,B,] | [B,,B,]B,, B,,[B,,B,] | %3
 [B,,B,][B,,B,] [C,A,][D,B,] | [E,B,]E, E,[E,B,E] | [E,B,E][C,C] [C,G,][C,G,] | [F,A,]F, F,[F,DF] | %7
 [C,C][C,C] [C,C][C,C] |[M:3/8] [F,A,]F,F, |[M:1/8] [B,,B,] | %10
[M:2/4] [B,,B,][B,,B,] [B,,B,][B,,B,] | [E,G,][E,B,] [B,,B,][B,,B,] | [C,G,][C,G,] [C,C][C,C] | %13
[M:3/8][K:treble] [F,A,F]3 |[M:1/8] [F,DF] |[M:2/4] [F,DF][F,CF] [F,CF][F,A,F] | %16
 [F,EF][F,DF] [F,DF][B,F] | [B,F][K:bass][F,A,F] [F,CF][F,CE] |[M:3/8] [B,,B,]3 | %19
[M:1/8][K:treble] [G,B,G] |[M:2/4] [G,B,G][G,B,G][K:bass] [D,A,][D,A,] | %21
 [E,E][E,E] [E,B,E][E,B,E] | [D,B,][B,,B,] [C,B,][C,B,] |[M:3/8] [F,C]3 |[M:1/8] [B,,B,] | %25
[M:2/4] [E,B,][E,B,] [E,B,][E,B,] | [B,,B,][B,,B,] [B,,B,][B,,F,] | [F,B,F][F,A,E] [F,DF][F,CE] | %28
[M:3/8] [B,,B,]3 |[M:1/8] [F,A,] |[M:2/4] [B,,B,]D, C,[E,A,] | [D,B,][B,,B,] [B,,B,][B,,B,] | %32
 [E,B,E][G,B,E] [F,B,E][E,B,E] | [D,B,]F, D,[B,,B,] | [C,A,]C, D,[D,B,] | [E,B,][E,G,] [E,G,]=E, | %36
 F,F, C,>C, |[M:3/8] F,3 |[M:1/8] F, |[M:2/4] [B,,B,]D, C,[E,A,] | [D,B,][B,,B,] [B,,B,][B,,B,] | %41
 [E,B,E][G,B,E] [F,B,E][E,B,E] | [D,B,]F, D,[B,,B,] | [C,C]C, D,[D,B,] | %44
[M:9/16] [E,CE][E,CE]/-[E,CE]/[E,CE]-[E,CE]/[C,C] |[M:2/4] [F,B,F][F,B,F] [F,A,F]>[F,A,E] | %46
[M:3/8] [B,,B,]3 |] %47
V:3
 x4 | x4 | z B, B,[DF] | x4 | z B, B,G | x4 | z A, A,B | x4 |[M:3/8] z A,A, |[M:1/8] x | %10
[M:2/4] x4 | x4 | x4 |[M:3/8] x3 |[M:1/8] x |[M:2/4] x4 | x4 | x4 |[M:3/8] x3 |[M:1/8] x | %20
[M:2/4] x4 | x4 | x4 |[M:3/8] x3 |[M:1/8] x |[M:2/4] x4 | x4 | x4 |[M:3/8] x3 |[M:1/8] x | %30
[M:2/4] x4 | x4 | x4 | z B, B,[Fd] | x4 | x4 | x4 |[M:3/8] x3 |[M:1/8] x |[M:2/4] x4 | x4 | x4 | %42
 z B, B,[Fd] | x4 |[M:9/16] x9/2 |[M:2/4] x4 |[M:3/8] x3 |] %47

